packages/kaspersky-hexa-ui-icons/src/iconsSVGs/24/VolumeK8S.svg

<svg width="24" height="24" viewBox="0 0 24 24" fill="none" xmlns="http://www.w3.org/2000/svg">
<path fill-rule="evenodd" clip-rule="evenodd" d="M2 8.5C2 7.64238 2.45088 6.93437 3.03043 6.4015C3.60913 5.86943 4.39133 5.43622 5.27359 5.09312C7.04448 4.40444 9.42296 4 12 4C14.577 4 16.9555 4.40444 18.7264 5.09312C19.6087 5.43622 20.3909 5.86943 20.9696 6.4015C21.5491 6.93437 22 7.64238 22 8.5V17C22 17.8519 21.4811 18.5044 20.9117 18.9531C20.331 19.4108 19.5528 19.7791 18.6802 20.07C16.9246 20.6552 14.5629 21 12 21C9.43715 21 7.07541 20.6552 5.31981 20.07C4.44724 19.7791 3.66896 19.4108 3.08829 18.9531C2.51889 18.5044 2 17.8519 2 17V8.5ZM4 8.5C4 8.39112 4.0528 8.17839 4.3841 7.87378C4.71624 7.56839 5.25207 7.2474 5.99849 6.95713C7.48496 6.37906 9.60648 6 12 6C14.3935 6 16.515 6.37906 18.0015 6.95713C18.7479 7.2474 19.2838 7.56839 19.6159 7.87378C19.9472 8.17839 20 8.39112 20 8.5C20 8.60888 19.9472 8.82161 19.6159 9.12622C19.2838 9.43161 18.7479 9.7526 18.0015 10.0429C16.515 10.6209 14.3935 11 12 11C9.60648 11 7.48496 10.6209 5.99849 10.0429C5.25207 9.7526 4.71624 9.43161 4.3841 9.12622C4.0528 8.82161 4 8.60888 4 8.5ZM20 11.3014V17C20 17.0007 20.0001 17.0049 19.9969 17.0153C19.9935 17.0264 19.9852 17.0485 19.9649 17.0814C19.9225 17.1506 19.8359 17.2545 19.6738 17.3823C19.3436 17.6425 18.8038 17.9206 18.0477 18.1726C16.546 18.6732 14.4077 19 12 19C9.59229 19 7.45402 18.6732 5.95227 18.1726C5.19616 17.9206 4.65642 17.6425 4.32624 17.3823C4.16408 17.2545 4.07752 17.1506 4.03507 17.0814C4.01483 17.0485 4.00645 17.0264 4.00305 17.0153C3.99998 17.0052 4 17.001 4 17.0001L4 11.3014C4.38827 11.5281 4.81757 11.7295 5.27359 11.9069C7.04448 12.5956 9.42296 13 12 13C14.577 13 16.9555 12.5956 18.7264 11.9069C19.1824 11.7295 19.6117 11.5281 20 11.3014Z" fill="black"/>
</svg>

<svg xmlns="http://www.w3.org/2000/svg" width="24" height="24" fill="none" viewBox="0 0 24 24"><path fill="#000" fill-rule="evenodd" d="M2 8.5c0-.8576.4509-1.5656 1.0304-2.0985.5787-.532 1.361-.9653 2.2432-1.3084C7.0445 4.4044 9.423 4 12 4s4.9555.4044 6.7264 1.0931c.8823.3431 1.6645.7763 2.2432 1.3084C21.5491 6.9344 22 7.6424 22 8.5V17c0 .8519-.5189 1.5044-1.0883 1.9531-.5807.4577-1.3589.826-2.2315 1.1169-1.7556.5852-4.1173.93-6.6802.93s-4.9246-.3448-6.6802-.93c-.8726-.2909-1.6508-.6592-2.2315-1.1169C2.5189 18.5044 2 17.8519 2 17zm2 0c0-.1089.0528-.3216.3841-.6262.3321-.3054.868-.6264 1.6144-.9167C7.485 6.3791 9.6065 6 12 6s4.515.379 6.0015.9571c.7464.2903 1.2823.6113 1.6144.9167.3313.3046.3841.5173.3841.6262s-.0528.3216-.3841.6262c-.3321.3054-.868.6264-1.6144.9167C16.515 10.6209 14.3935 11 12 11s-4.515-.3791-6.0015-.9571c-.7464-.2903-1.2823-.6113-1.6144-.9167C4.0528 8.8216 4 8.609 4 8.5m16 2.8014V17c0 .0007.0001.0049-.0031.0153a.3.3 0 0 1-.032.0661c-.0424.0692-.129.1731-.2911.3009-.3302.2602-.87.5383-1.6261.7903C16.546 18.6732 14.4077 19 12 19s-4.546-.3268-6.0477-.8274c-.7561-.252-1.2959-.5301-1.626-.7903-.1622-.1278-.2488-.2317-.2912-.3009a.3.3 0 0 1-.032-.0661C4 17.0052 4 17.001 4 17.0001v-5.6987c.3883.2267.8176.4281 1.2736.6055C7.0445 12.5956 9.423 13 12 13s4.9555-.4044 6.7264-1.0931c.456-.1774.8853-.3788 1.2736-.6055"/></svg>
